svgs/light/user-headset.svg

<svg xmlns="http://www.w3.org/2000/svg" viewBox="0 0 448 512"><!-- Font Awesome Pro 6.0.0-alpha2 by @fontawesome - https://fontawesome.com License - https://fontawesome.com/license (Commercial License) --><path d="M223.682 96H224.32C262.068 96 296.293 118.098 311.75 152.625C327.125 187.25 320.625 227.75 295.25 255.75C295.25 255.875 295.375 255.875 295.375 256H304C320.5 256 335.875 247.375 344.5 233.375C349 220.375 352 206.625 352 192C352 121.25 294.75 64 224 64S96 121.25 96 192C96 232.375 115.125 268 144.375 291.5C144.25 290.25 144 289.25 144 288C144.125 276.75 147.125 265.625 152.875 256C127.375 228 120.75 187.5 136.125 152.75C151.582 118.223 185.809 96 223.682 96ZM48 224C56.875 224 64 216.875 64 208V192C64 103.75 135.75 32 224 32S384 103.75 384 192V208C384 252.125 348.125 288 304 288H272C272 270.375 257.625 256 240 256H208C190.375 256 176 270.375 176 288S190.375 320 208 320H304C365.875 319.875 415.875 269.875 416 208V192C416 86.125 329.875 0 224 0S32 86.125 32 192V208C32 216.875 39.125 224 48 224ZM314.664 352H133.336C59.699 352 0 411.695 0 485.332C0 500.059 11.941 512 26.664 512H421.336C436.059 512 448 500.059 448 485.332C448 411.695 388.307 352 314.664 352ZM32.139 480C34.918 426.592 79.246 384 133.336 384H314.664C368.754 384 413.082 426.592 415.861 480H32.139Z"/></svg>

<svg xmlns="http://www.w3.org/2000/svg" viewBox="0 0 448 512"><!--! Font Awesome Pro 6.3.0 by @fontawesome - https://fontawesome.com License - https://fontawesome.com/license (Commercial License) Copyright 2023 Fonticons, Inc. --><path d="M223.7 96h.6387c37.75 0 71.97 22.1 87.43 56.63c15.38 34.63 8.982 75.33-16.39 103.3c0 .125 0-.125 0 0L304 256c16.5 0 31.9-8.6 40.52-22.6C349 220.4 352 206.6 352 192c0-70.75-57.25-128-128-128s-128 57.25-128 128c0 40.38 19.12 75.99 48.37 99.49C144.2 290.2 144 289.3 144 288C144.1 276.8 147.1 265.6 152.9 256c-25.5-28-32.13-68.5-16.75-103.3C151.6 118.2 185.8 96 223.7 96zM48 224C56.88 224 64 216.9 64 208V192c0-88.25 71.75-160 160-160s160 71.75 160 160v16C384 252.1 348.1 288 304 288h-32c0-17.62-14.38-32-32-32h-32c-17.62 0-32 14.38-32 32s14.38 32 32 32h96c61.88-.125 111.9-50.13 112-112V192c0-105.9-86.13-192-192-192S32 86.13 32 192v16C32 216.9 39.13 224 48 224zM314.7 352H133.3C59.7 352 0 411.7 0 485.3C0 500.1 11.94 512 26.66 512H421.3C436.1 512 448 500.1 448 485.3C448 411.7 388.3 352 314.7 352zM32.14 480c2.779-53.41 47.11-96 101.2-96h181.3c54.09 0 98.42 42.59 101.2 96H32.14z"/></svg>
